packages/kaspersky-hexa-ui-icons/src/iconsSVGs/64x42/FlagCaf.svg

<svg width="64" height="42" viewBox="0 0 64 42" fill="none" xmlns="http://www.w3.org/2000/svg">
<g clip-path="url(#clip0_37941_2388)">
<rect width="64" height="42" rx="5" fill="white"/>
<rect width="64" height="42" fill="#19BFBF"/>
<path fill-rule="evenodd" clip-rule="evenodd" d="M19.4592 11.5554C19.4221 11.3324 19.4949 11.1052 19.6547 10.9454L24.795 5.80512C24.9263 5.67385 25.1043 5.6001 25.29 5.6001H28.7674C29.0325 5.6001 29.2749 5.7499 29.3935 5.98705L30.4066 8.01315C30.5251 8.2503 30.7675 8.4001 31.0326 8.4001H35.7674C36.0325 8.4001 36.2749 8.5499 36.3935 8.78705L40.2066 16.4131C40.3251 16.6503 40.5675 16.8001 40.8326 16.8001H43.2C43.7769 16.8001 44.1061 17.4586 43.76 17.9201L40.4379 22.3496C40.4127 22.3832 40.3906 22.419 40.3718 22.4566L39.0739 25.0523C39.0253 25.1495 39 25.2567 39 25.3653V27.8349C39 27.9435 38.9747 28.0507 38.9261 28.1479L37.6 30.8001L36.2 33.6001L34.9935 36.0131C34.8749 36.2503 34.6325 36.4001 34.3674 36.4001H32.4326C32.1675 36.4001 31.9251 36.2503 31.8066 36.0131L30.6739 33.7479C30.6253 33.6507 30.6 33.5435 30.6 33.4349V25.49C30.6 25.3044 30.5263 25.1263 30.395 24.9951L29.3169 23.9169C29.24 23.8401 29.1821 23.7464 29.1478 23.6433L27.9596 20.0787C27.8643 19.7929 27.5968 19.6001 27.2955 19.6001H21.393C21.0508 19.6001 20.7588 19.3527 20.7025 19.0152L19.4592 11.5554Z" fill="white"/>
<path fill-rule="evenodd" clip-rule="evenodd" d="M41.7999 28.6998C41.7999 28.3132 42.1133 27.9998 42.4999 27.9998H43.8999C44.2865 27.9998 44.5999 28.3132 44.5999 28.6998V30.6345C44.5999 30.7432 44.5746 30.8504 44.526 30.9476L43.3934 33.2128C43.2748 33.45 43.0324 33.5998 42.7673 33.5998H42.4999C42.1133 33.5998 41.7999 33.2864 41.7999 32.8998V28.6998Z" fill="white"/>
</g>
<defs>
<clipPath id="clip0_37941_2388">
<rect width="64" height="42" rx="5" fill="white"/>
</clipPath>
</defs>
</svg>

<svg xmlns="http://www.w3.org/2000/svg" width="64" height="42" fill="none" viewBox="0 0 64 42"><g clip-path="url(#a)"><rect width="64" height="42" fill="#fff" rx="5"/><path fill="#19bfbf" d="M0 0h64v42H0z"/><path fill="#fff" fill-rule="evenodd" d="M19.459 11.555a.7.7 0 0 1 .196-.61l5.14-5.14a.7.7 0 0 1 .495-.205h3.477a.7.7 0 0 1 .626.387l1.013 2.026a.7.7 0 0 0 .626.387h4.735a.7.7 0 0 1 .626.387l3.813 7.626a.7.7 0 0 0 .626.387H43.2c.577 0 .906.659.56 1.12l-3.322 4.43a.7.7 0 0 0-.066.107l-1.298 2.596a.7.7 0 0 0-.074.313v2.47a.7.7 0 0 1-.074.313L37.6 30.8l-1.4 2.8-1.206 2.413a.7.7 0 0 1-.626.387h-1.935a.7.7 0 0 1-.626-.387l-1.133-2.265a.7.7 0 0 1-.074-.313V25.49a.7.7 0 0 0-.205-.495l-1.078-1.078a.7.7 0 0 1-.169-.274l-1.188-3.565a.7.7 0 0 0-.664-.479h-5.903a.7.7 0 0 1-.69-.585zM41.8 28.7a.7.7 0 0 1 .7-.7h1.4a.7.7 0 0 1 .7.7v1.935a.7.7 0 0 1-.074.313l-1.133 2.265a.7.7 0 0 1-.626.387H42.5a.7.7 0 0 1-.7-.7z" clip-rule="evenodd"/></g><defs><clipPath id="a"><rect width="64" height="42" fill="#fff" rx="5"/></clipPath></defs></svg>
